X:645
M:C
L:1/8
K:A
c|A,>CE>C E>FA>f|e>c d/c/B/A/ B>AFA|A,>CE>C E>F A<f|e>c d/c/B/A/ B2A:|
c|A/B/c/d/ e>a e>cA>c|d>Bc>A B>AF>B|A/B/c/d/ e>a e>cA>c|d>B ed/c/ B2 A>c|
"Last time only:"
(3ABc (3Bcd (3cde (3def|e>c d/c/B/A/ B2A||

